X:1
T:O Pastorelle, Addio
T:O Pastorelle, Addio
T:Umberto Giordano (1867-1948)
T:CPDL
T:CPDL
T:CPDL
T:CPDL
T:CPDL
T:CPDL
T:CPDL
T:CPDL
T:CPDL
C:Umberto Giordano (1867-1948)
Z:CPDL
%%score [ 1 2 3 ] { ( 4 7 ) | ( 5 6 8 ) }
L:1/8
Q:1/4=76
M:4/4
K:A
V:1 treble nm="Soprano"
V:2 treble nm="Soprano"
V:3 treble nm="Alto"
V:4 treble nm="Piano"
V:7 treble 
V:5 bass 
V:6 bass 
V:8 bass 
V:1
 z8 | z8 | z8 |[M:3/4][Q:1/4=80]"^Andante grazioso" z6 | z6 |!pp! (e2 dc BA | B2 F3) (c | %7
w: |||||O Pa- sto- rel- le,ad-|di- o, ad-|
 B2 F3) (c | A6 | A6- | A2) z2 (E2 | (e2 d)c BA | B2 F3) (c | B2 F3) (c | A6 | A6) | %16
w: di- o, ad-|di-|o!|_ Ciav-|via- * mo ver- so|li- di i-|gno- ti e|stra-|ni!|
!>(! e6!>)!!p! |!>(! ^d6!>)!!p! | (!tenuto!e!tenuto!f !tenuto!e2 ce | ^d4- d) z | %20
w: Ahi!|Ahi!|Sa- rem lun- gi di-|man! _|
!<(! (^de"^rall." f!<)!!>(!d({cd)} c!>)!A | (GA) B4) |!pp! B6 | B6 | (^de fd({cd)} cA | %25
w: Que- sti lo- chiab- ban- do-|nia- * mo!|Ahi!|Ahi!|Non a- vrà, fi- noal ri-|
 (GA) B2) e2 |"^poco rall." (FG A2 !fermata!^D2) | (E6 |!>(! e6)!>)! |!>(! ^d6!>)! | %30
w: tor- * no, più|gio- * ie il|cor.|Ahi!|Ahi!|
 (!tenuto!e!tenuto!f !tenuto!e2 ce) |!>(! ^d6!>)! |"^animando poco"!p! (^d2 c^B ^AG | ^A2 ^B3) z | %34
w: Sa- rem lun- gi di-|man!|O pa- sto- rel- lead-|di- o!|
!<(! (f2 e^d c!<)!B | c2 ^d3) z |!ff! [fa]6 | [eg]6 | %38
w: O pas- to- rel- lead-|di- o!|Ah!|Ah!|
"^trattenendo"!ff! !tenuto![df]!tenuto![dg] !tenuto![df]2 ([de]{/g}[df]) | [de]6 | %40
w: Sa- rem lun- gi di-|man!|
"^a tempo"!p!!>(! e6!>)! | z4 z c | B2 F3 c | B6 |!p! F6 | [df]6 | z4 c2 | A6 | %48
w: Ah!|Ad-|di- o, ad-|dio!|Ah!|Ah!|Ad-|dio!|
"^rall."!pp! [Ae]6!pp! | !fermata![cea]6- | [cea] z !fermata!z4 |] %51
w: Ah!|Ah!|_|
V:2
 z8 | z8 | z8 |[M:3/4] z6 | z6 |!pp! c2 BA EE | F2 D3 D | F2 F3 G | E6 | E6- | E2 z2 E2 | %11
w: |||||O Pa- sto- rel- le,ad-|di- o, ad-|di- o, ad-|di-|o!|_ Ciav-|
 (c2 B)A EE | F2 D3 D | F2 D3 G | E6 | E6 |!>(! c6!>)!!p! |!>(! c6!>)!!p! | %18
w: via- * mo ver- so|li- di i-|gno- ti e|stra-|ni!|Ahi!|Ahi!|
 !tenuto!c!tenuto!c !tenuto!c2 cc | c4- c z | Bc ^dB AF | (EF) G4 |!pp! [B,B]6 | B6 | Bc ^dB AF | %25
w: Sa- rem lun- gi di-|man! _|Que- sti lo- chiab- ban- do-|nia- * mo!|Ahi!|Ahi!|Non a- vrà, fi- noal ri-|
 (EF) G2 [Ee]2 | (FG A2 !fermata!^D2) | (E6 | c6) | c6 | !tenuto!c!tenuto!c !tenuto!c2 cc | c6 | %32
w: tor- * no, più|gio- * ie il|cor.|Ahi!|Ahi!|Sa- rem lun- gi di-|man!|
!p! (^B2 ^AG ^^F^E | ^^F2 G3) z | (^d2 cB ^AG | ^A2 B3) z |!ff! [Ad]6 | [Gd]6 | %38
w: O pa- sto- rel- lead-|di- o!|O pas- to- rel- lead-|di- o!|Ah!|Ah!|
!ff! !tenuto![FA]!tenuto![GB] !tenuto![FA]2 [EG][FA] | [EG]6 |!p!!>(! [Ee]6!>)! | z4 z D | %42
w: Sa- rem lun- gi di-|man!|Ah!|Ad-|
 F2 D3 D | F6 |!p! F6 | [FB]6 | z4 G2 | E6 |!pp! E6!pp! | !fermata![Ac]6- | [Ac] z !fermata!z4 |] %51
w: di- o, ad-|dio!|Ah!|Ah!|Ad-|dio!|Ah!|Ah!|_|
V:3
 z8 | z8 | z8 |[M:3/4] z6 | z6 |!pp! E2 EE DC | D2 B,3 F | D2 B,3 D | C6 | C6- | C2 z2 E2 | %11
w: |||||O Pa- sto- rel- le,ad-|di- o, ad-|di- o, ad-|di-|o!|_ Ciav-|
 E3 E DC | D2 B,3 F | D2 B,3 D | C6 | C6 |!>(! A6!>)!!p! |!>(! A6!>)!!p! | %18
w: via- mo ver- so|li- di i-|gno- ti e|stra-|ni!|Ahi!|Ahi!|
 !tenuto!A!tenuto!A !tenuto!A2 AA | A4- A z | B,6 | B,6 |!pp! B,6 | B,6 | B,4 B,2 | B,4 E2 | %26
w: Sa- rem lun- gi di-|man! _|Ahi!|Ahi!|Ahi!|Ahi!|Non a-|vrà più|
 (FG A2 !fermata!^D2) | (E6 | A6) | A6 | !tenuto!A!tenuto!A !tenuto!A2 AA | A6 | z6 | z6 | z6 | %35
w: gio- * ie il|cor.|Ahi!|Ahi!|Sa- rem lun- gi di-|man!||||
 z6 |!ff! [DF]6 | [DE]6 |!ff! !tenuto!D!tenuto![DE] !tenuto!D2 DD | D6 |!p!!>(! E6!>)! | z4 z F | %42
w: |Ah!|Ah!|Sa- rem lun- gi di-|man!|Ah!|Ad-|
 D2 E3 E | D6 |!p! D6 | D6 | z4 E2 | C6 |!pp! C6!pp! | !fermata![CE]6- | [CE] z !fermata!z4 |] %51
w: di- o, ad-|dio!|Ah!|Ah!|Ad-|dio!|Ah!|Ah!|_|
V:4
!p! (E/D/B,/G,/ B,/D/E/G/) (B/G/E/D/ E/G/B/d/) | (e/d/B/G/ B/d/e/g/) (b/g/e/d/ e/g/b/d'/) | %2
 e' !>!e'2 !>!e'2 !>!e'2- e' |[M:3/4]!p! !trill(!Te'6 |"^rall." !trill)!e'2- e' z z2 | %5
"^a tempo"!p! [E,A,C]6 | [F,-B,D]6 | D6 | [E,A,C]6- | [E,A,C]6- | [E,A,C]6 | [E,A,C]6 | [F,B,D]6- | %13
 D6 | [E,A,C]6- | [E,A,C]6 |"^un poco accentuato" [A,CE]6 | [A,C^D]6 | EF E4 | [A,C^D]6 | %20
 z!<(! (A,"^rall." ^D!<)!!>(!B,!>)! A,2) | (B,A, G,B, EB,) | %22
!p!"^dolce"!8va(! [^d'f'][e'g'] [f'a']2 [d'f']2 | [c'e'][^d'f'] [e'g']3!8va)! z | z (A, ^DB, A,2) | %25
 z6 |!<(! (FG A2)!<)! [A,^DB]2 | TE2({^DE)} TG2({^^FG)} TB2 | e x5 | [A,C^D]6 | EF E4 | %31
!>(! [A,C^D]6!>)! |"^animando poco"!p! ([^B^d]2 [^Ac][G=B] [^^FA][^EG] | [^^F^A]2 [G^B]3) z | %34
!<(! ([^df]2 [ce][Bd] [^Ac]!<)![GB] | [^Ac]2 [B^d]3) z |!f! [A,DF]6 | [G,DE]6 |"^col canto" z6 | %39
 E4 e2- |"^a tempo"!p! ([c'e']2 [bd'][ac'] [db][ca] | ((([dfb]2 [Bdf]3)))) z | z6 | B,C DF Bc | %44
 df bc'!8va(! d'f' | b'!8va)! z !fermata!z4 | E6- | (A,B, CE AB |"^rall." ce ab!8va(! c'e' | %49
 a') z!8va)! !fermata!z4 |!p! !>!A, z !fermata!z4 |] %51
V:5
 ([E,G,]/E,/D,/B,,/ D,/E,/G,/B,/) (D/B,/G,/E,/ G,/B,/D/E/) | %1
 (G/E/D/B,/ D/E/G/B/) (d/B/G/E/ G/B/d/e/) | g !>!e2 !>!e2 !>!e2- e |[M:3/4]({/^d^d'} !trill(!Te6 | %4
 (!trill)!e)B) (BE)[K:bass] .B,.E, | z (E, CA, E2) | z (F, DF, E2) | z (F, DF, E2) | %8
 z (E, CA, E2) | z (E, CA, E2) | z (E, CA, E2) | z (E, CA, E2) | z (F, DB, E2) | z (F, DB, E2) | %14
 z (E, CA, E2) | z (E, CA, E2) | z (F, CA, E2) | z (F, CA, ^D2) | z (F, CA, E2) | z (F, CA, ^D2) | %20
 [B,,,B,,]6 | x6 | (A,G, F,A, ^DA,) | (G,F, E,G, CG,) | [B,,,B,,]6- | (B,A, G,E,) (CC,) | %26
 (A,G, F,C, B,,2) |!<(! [E,,B,,]6!<)! | z (F, CA, E2) | z (F, CA, ^D2) | z (F, CA, E2) | %31
 z (F, CA, ^D2) | (^D,,^D, ^D) z D, z | (G,,^D, ^D^B, G,D,) | (F,,F, F) z F, z | (B,,F, F^D B,F,) | %36
 z (F, DA, FD) | z (E, DG, E) z | z6 | x6 | (A,,E, CA, E2) | (A,,F, DB, E2) | (A,,F, DB, E2) | x6 | %44
 x6 | x6 | z6 | x6 | x6 | x6 | x6 |] %51
V:6
 x8 | x8 | x8 |[M:3/4] x6 | x4[K:bass] x2 | [A,,,A,,]6 | [A,,,A,,]6 | [A,,,A,,]6 | [A,,,A,,]6 | %9
 [A,,,A,,]6 | [A,,,A,,]6 | [A,,,A,,]6 | [A,,,A,,]6 | [A,,,A,,]6 | [A,,,A,,]6 | [A,,,A,,]6 | F,,6 | %17
 F,,6 | F,,6 | F,,6 | x6 | [B,,,B,,]6- | [B,,,B,,]6- | [B,,,B,,]6 | x6 | [B,,,B,,]4 z2 | %26
 x4 z B,,,/ !fermata!z/ | x6 | F,,6 | F,,6 | F,,6 | F,,6 | ^D,,6 | G,,6 | F,,6 | B,,6 | [E,,B,,]6 | %37
 [E,,B,,]6 | x6 | ED B,G, E,E,, | A,,6 | A,,6 | A,,6 | D,F, B,C DF | Bc df bc' | d' z !fermata!z4 | %46
 x6 | (C,E, A,B, CE | AB ce ab | c') z !fermata!z4 | !>![A,,,A,,] z !fermata!z4 |] %51
V:7
 x8 | x8 | x8 |[M:3/4] x6 | x6 | x6 | x6 | [F,B,]4- [F,B,][E,G,] | x6 | x6 | x6 | x6 | x6 | %13
 [F,B,]4- [F,B,][E,G,] | x6 | x6 | x6 | x6 | [A,C]6 | x6 | x6 | x6 |!8va(! b6 | b4 x!8va)! x | x6 | %25
 x6 | C4 x2 |({^AB)} [G,E]6 | [A,CE]6 | x6 | [A,C]6 | x6 | x6 | x6 | x6 | x6 | x6 | x6 | x6 | x6 | %40
 e6 | x6 | x6 | x6 | x4!8va(! x2 | x!8va)! x5 | x6 | E2 x4 | x4!8va(! x2 | x2!8va)! x4 | x6 |] %51
V:8
 x8 | x8 | x8 |[M:3/4] x6 | x4[K:bass] x2 | x6 | x6 | x6 | x6 | x6 | x6 | x6 | x6 | x6 | x6 | x6 | %16
 x6 | x6 | x6 | x6 | x6 | x6 | x6 | x6 | x6 | x6 | x6 | x6 | x6 | x6 | x6 | x6 | x6 | x6 | x6 | %35
 x6 | x6 | x6 | x6 | x6 | A,,, z z4 | A,,, z z4 | A,,, z z4 | x6 | x6 | x6 | x6 | x6 | x6 | x6 | %50
 x6 |] %51

